packages/foundations/assets/icons/functional/images/business & payment/cash_24.svg

<svg width="24" height="24" viewBox="0 0 24 24" fill="none" xmlns="http://www.w3.org/2000/svg">
<g clip-path="url(#clip0_184_7)">
<path fill-rule="evenodd" clip-rule="evenodd" d="M15.035 13.167C16.574 13.1669 18.0702 13.6741 19.292 14.61L20.642 15.734C20.8357 15.8977 20.9599 16.1289 20.9895 16.3807C21.0192 16.6326 20.952 16.8863 20.8017 17.0905C20.6514 17.2947 20.4291 17.4342 20.1798 17.4807C19.9305 17.5272 19.6729 17.4773 19.459 17.341L18.247 16.335C17.417 15.639 16.18 15.181 15.305 15.174C14.721 15.169 13.988 15.167 13.105 15.167C12.9184 15.1672 12.7374 15.2305 12.5914 15.3467C12.4454 15.463 12.343 15.6252 12.301 15.807C12.2939 15.8368 12.2928 15.8677 12.2977 15.898C12.3026 15.9283 12.3134 15.9572 12.3296 15.9833C12.3458 16.0093 12.367 16.0319 12.3919 16.0497C12.4169 16.0675 12.4451 16.0802 12.475 16.087L15.065 16.252C15.3199 16.2742 15.5565 16.3932 15.7263 16.5846C15.8961 16.7759 15.9861 17.0251 15.9778 17.2808C15.9695 17.5365 15.8634 17.7793 15.6816 17.9592C15.4997 18.1391 15.2558 18.2424 15 18.248L12.449 18.099C11.88 18.047 11.414 17.866 10.671 17.586C9.67288 17.2152 8.67286 16.8496 7.671 16.489C7.42536 16.3996 7.15793 16.3891 6.90605 16.459C6.65417 16.5289 6.4304 16.6758 6.266 16.879C6.179 16.986 6.188 17.186 6.356 17.263L9.828 18.86C10.6423 19.2344 11.5208 19.4489 12.416 19.492L20 19.5C20.2652 19.5 20.5196 19.6054 20.7071 19.7929C20.8946 19.9804 21 20.2348 21 20.5C21 21.013 20.598 21.5 20 21.5H12.751C11.5841 21.5 10.4283 21.2732 9.348 20.832C6.682 19.636 5.247 18.953 5.043 18.785C4.094 17.998 3.929 16.586 4.711 15.621C5.11624 15.1205 5.66078 14.7515 6.27576 14.5605C6.89074 14.3695 7.54855 14.3651 8.166 14.548L10.358 15.338C10.666 14.048 11.865 13.178 12.928 13.172C13.6303 13.1685 14.3327 13.1668 15.035 13.167ZM8.196 10.74C8.603 10.74 9.696 10.491 9.791 10.471C10.101 10.407 10.479 10.611 10.609 10.946C10.859 11.594 10.289 11.93 10.118 12.026C9.948 12.121 9.475 12.285 9.083 12.37C8.69416 12.4558 8.29719 12.4994 7.899 12.5C7.041 12.5 6.34 12.378 5.794 12.135C5.26361 11.9049 4.81874 11.5142 4.522 11.018C4.22 10.518 4.01 9.866 3.893 9.063H3V7.926H3.853V7.033H3V5.896H3.893C4.046 5.076 4.281 4.419 4.597 3.928C4.90702 3.44085 5.36103 3.06233 5.896 2.845C6.446 2.615 7.154 2.5 8.02 2.5C8.728 2.5 9.367 2.593 9.937 2.778C10.317 2.908 10.698 3.303 10.567 3.811C10.385 4.418 9.787 4.503 9.373 4.394C8.98028 4.28858 8.57562 4.23413 8.169 4.232C7.556 4.232 7.114 4.361 6.843 4.618C6.573 4.875 6.383 5.301 6.275 5.896H8.778V7.033H6.248V7.926H8.778V9.063H6.275C6.355 9.694 6.536 10.132 6.816 10.376C7.096 10.619 7.556 10.741 8.196 10.741V10.74Z" fill="#1A1C1F"/>
</g>
<defs>
<clipPath id="clip0_184_7">
<rect width="24" height="24" fill="white"/>
</clipPath>
</defs>
</svg>

<svg xmlns="http://www.w3.org/2000/svg" width="24" height="24" fill="none"><g clip-path="url(#a)"><path fill="#1A1C1F" fill-rule="evenodd" d="M15.035 13.167a7 7 0 0 1 4.257 1.443l1.35 1.124a1 1 0 0 1-1.183 1.607l-1.212-1.006c-.83-.696-2.067-1.154-2.942-1.161q-.876-.007-2.2-.007a.826.826 0 0 0-.804.64.23.23 0 0 0 .174.28l2.59.165A1 1 0 0 1 15 18.248l-2.551-.149c-.569-.052-1.035-.233-1.778-.513q-1.497-.555-3-1.097a1.255 1.255 0 0 0-1.405.39c-.087.107-.078.307.09.384l3.472 1.597a7 7 0 0 0 2.588.632L20 19.5a1 1 0 0 1 1 1c0 .513-.402 1-1 1h-7.249a9 9 0 0 1-3.403-.668q-3.999-1.794-4.305-2.047c-.949-.787-1.114-2.199-.332-3.164a3.26 3.26 0 0 1 3.455-1.073l2.192.79c.308-1.29 1.507-2.16 2.57-2.166q1.053-.006 2.107-.005M8.196 10.74c.407 0 1.5-.249 1.595-.269.31-.064.688.14.818.475.25.648-.32.984-.491 1.08-.17.095-.643.259-1.035.344q-.585.13-1.184.13-1.287 0-2.105-.365c-.53-.23-.975-.62-1.272-1.117q-.453-.75-.629-1.955H3V7.926h.853v-.893H3V5.896h.893q.23-1.23.704-1.968a2.8 2.8 0 0 1 1.299-1.083Q6.721 2.5 8.02 2.5q1.062 0 1.917.278c.38.13.761.525.63 1.033-.182.607-.78.692-1.194.583a4.7 4.7 0 0 0-1.204-.162q-.92 0-1.326.386-.405.385-.568 1.278h2.503v1.137h-2.53v.893h2.53v1.137H6.275q.12.947.541 1.313.42.365 1.38.365z" clip-rule="evenodd"/></g><defs><clipPath id="a"><path fill="#fff" d="M0 0h24v24H0z"/></clipPath></defs></svg>
